X:5041
T:Cleggan Pier
C:Aidan Crossey
R:Slip Jig
M:9/8
L:1/8
K:G
d2e|fed cAF G2A|BAB cBc d2e|fed cAF G2A|BAG FGF E3|
d2e|fed cAF G2A|BAB cBc d2e|fed cAF G2A|BAG FGF G3|
B2c|dBd dBd g2d|cBc cBc f2c|BAB BAB g2B|ABA GFE D3|
B2c|dBd dBd g2d|cBc cBc f2c|BAB BAB g2B|ABA G2F G3|
B2c|dBG efg dBG|cAF fed cBA|Bcd def gfg|afd d^cd d3|
B2c|dBG efg dBG|cAF fed cBA|Bcd def gfg|afd cBA G3||
